components/Icon/svg/help.svg

<svg width="24" height="24" viewBox="0 0 24 24" fill="none" xmlns="http://www.w3.org/2000/svg">
<path d="M12 21.475C11.8324 21.475 11.6716 21.4084 11.5531 21.2899C11.4346 21.1714 11.368 21.0106 11.368 20.843V19.58C11.368 19.4124 11.4346 19.2516 11.5531 19.1331C11.6716 19.0146 11.8324 18.948 12 18.948C12.1676 18.948 12.3284 19.0146 12.4469 19.1331C12.5654 19.2516 12.632 19.4124 12.632 19.58V20.843C12.632 21.0106 12.5654 21.1714 12.4469 21.2899C12.3284 21.4084 12.1676 21.475 12 21.475V21.475ZM12 17.685C11.8326 17.685 11.672 17.6186 11.5535 17.5002C11.435 17.3819 11.3683 17.2214 11.368 17.054V14.527C11.368 14.178 11.651 13.895 12 13.895C13.1719 13.8937 14.2955 13.4276 15.1243 12.599C15.9531 11.7704 16.4194 10.6469 16.421 9.475C16.4202 8.30254 15.9542 7.17829 15.1254 6.34905C14.2965 5.51981 13.1725 5.05332 12 5.052C10.8279 5.05332 9.70416 5.51953 8.87534 6.34834C8.04653 7.17715 7.58033 8.30088 7.579 9.473C7.57251 9.63614 7.50314 9.79043 7.38542 9.90356C7.2677 10.0167 7.11077 10.0799 6.9475 10.0799C6.78424 10.0799 6.62731 10.0167 6.50959 9.90356C6.39187 9.79043 6.32249 9.63614 6.316 9.473C6.31812 7.96625 6.91768 6.52184 7.98321 5.4565C9.04873 4.39116 10.4933 3.79185 12 3.79C13.5069 3.79185 14.9516 4.3913 16.0172 5.45685C17.0827 6.52241 17.6821 7.96708 17.684 9.474C17.6826 10.8718 17.1668 12.2202 16.2351 13.2621C15.3034 14.3041 14.0209 14.9668 12.632 15.124V17.054C12.6317 17.2214 12.565 17.3819 12.4465 17.5002C12.328 17.6186 12.1674 17.685 12 17.685V17.685ZM24 12C24 15.206 22.753 18.22 20.486 20.487C19.374 21.6045 18.0514 22.4903 16.5948 23.0933C15.1382 23.6963 13.5765 24.0045 12 24C8.794 24 5.78 22.753 3.514 20.486C2.39642 19.3738 1.51043 18.0511 0.907266 16.5943C0.304103 15.1376 -0.0042634 13.5757 1.68391e-06 11.999C1.68391e-06 8.795 1.247 5.781 3.514 3.514C4.62594 2.39636 5.94848 1.51032 7.40508 0.907148C8.86169 0.303976 10.4235 -0.00435384 12 -3.09348e-07C15.206 -3.09348e-07 18.22 1.248 20.486 3.514C21.6038 4.6258 22.49 5.94831 23.0932 7.40495C23.6963 8.86159 24.0046 10.4234 24 12V12ZM22.737 12.002C22.737 6.08 17.92 1.263 12 1.263C6.08 1.263 1.263 6.08 1.263 12.001C1.263 17.921 6.08 22.738 12 22.738C17.92 22.738 22.737 17.921 22.737 12.001V12.002Z" fill="currentColor"/>
</svg>

<svg xmlns="http://www.w3.org/2000/svg" width="24" height="24" viewBox="0 0 24 24">
  <path fill="currentColor" d="M12 21.475a.632.632 0 0 1-.632-.632V19.58a.632.632 0 0 1 1.264 0v1.263a.632.632 0 0 1-.632.632Zm0-3.79a.632.632 0 0 1-.632-.631v-2.527c0-.349.283-.632.632-.632a4.426 4.426 0 0 0 4.421-4.42A4.426 4.426 0 0 0 12 5.052a4.426 4.426 0 0 0-4.421 4.421.632.632 0 0 1-1.263 0A5.691 5.691 0 0 1 12 3.79a5.691 5.691 0 0 1 5.684 5.684 5.691 5.691 0 0 1-5.052 5.65v1.93a.632.632 0 0 1-.632.631ZM24 12c0 3.206-1.247 6.22-3.514 8.487A11.923 11.923 0 0 1 12 24c-3.206 0-6.22-1.247-8.486-3.514A11.928 11.928 0 0 1 0 11.999c0-3.204 1.247-6.218 3.514-8.485A11.924 11.924 0 0 1 12 0c3.206 0 6.22 1.248 8.486 3.514A11.92 11.92 0 0 1 24 12Zm-1.263.002C22.737 6.08 17.92 1.263 12 1.263S1.263 6.08 1.263 12.001c0 5.92 4.817 10.737 10.737 10.737s10.737-4.817 10.737-10.737v.001Z"/>
</svg>
